src/assets/experiences/video.svg

<svg xmlns="http://www.w3.org/2000/svg" xmlns:xlink="http://www.w3.org/1999/xlink" width="505" height="504" xmlns:v="https://vecta.io/nano"><path d="M197.35 127.99h190.29v159.94H197.35V127.99z" fill="#a4c2f7"/><path d="M197.35 127.99h176.1v159.94h-176.1V127.99z" fill="#e3e7f2"/><g fill-rule="evenodd"><path d="M321.45 260.37v118.19a9.48 9.48 0 0 1-9.46 9.45H146.52a9.47 9.47 0 0 1-9.45-9.45V260.37h184.38zm-116.16 28.36l-2.04 4.73h18.92l2.03-4.73h-18.91z" fill="#a4c2f7"/><path d="M307.27 260.37v118.19a9.48 9.48 0 0 1-9.46 9.45H146.52a9.47 9.47 0 0 1-9.45-9.45V260.37h170.2zm-116.16 28.36l-2.04 4.73h18.91l2.04-4.73h-18.91z" fill="#e3e7f2"/></g><path d="M259.66 137.16l-14.8 14.85-7.38 7.37-6.8 6.86-14.19 14.18-7.32 7.37-6.81 6.86-7.38 7.38-6.81 6.85-7.32 7.33-6.86 6.9-14.18 14.18-7.28 7.33v.05l-6.91 6.86-7.28 7.32-1.51 1.52-16.74-16.79a9.47 9.47 0 0 1-2.77-6.69c0-2.51 1-4.91 2.77-6.69l8.37-8.41 14.19-14.19 7.23-7.28 6.95-6.95 7.19-7.23 6.99-7 7.19-7.23 6.95-7 7.23-7.18 6.95-7 7.19-7.23 14.18-14.19 7-7.04 1.84-1.84c1.77-1.79 4.18-2.79 6.69-2.79s4.92 1 6.69 2.79l16.74 16.73zM160.7 317.1v47.28l56.74-23.64-56.74-23.64z" fill="#e3e7f2"/><g fill="#fff"><path d="M197.35 152.73l-4.97 5-7.23 7.18-6.95 7-7.19 7.23-6.99 7-7.19 7.23-6.95 6.95-7.23 7.28-14.19 14.19-8.37 8.41c-1.77 1.78-2.77 4.18-2.77 6.69a9.47 9.47 0 0 0 2.77 6.69l16.74 16.79 1.51-1.52 5.57-5.6-9.63-9.67c-1.78-1.77-2.78-4.18-2.78-6.69s1-4.91 2.78-6.69l8.37-8.41 7.23-7.24 6.95-6.95 7.23-7.28 6.95-6.95 7.19-7.23 6.99-7 7.19-7.23 6.95-7 7.23-7.18m-55.31 220.83V260.37h-14.18v118.19a9.47 9.47 0 0 0 9.45 9.45h14.18c-5.21-.01-9.43-4.23-9.45-9.45h0z"/><path d="M132.34 378.56V260.37h9.45v118.19h-9.45z"/></g><g fill="#428dff"><path d="M135.27 345.09a3.26 3.26 0 0 0 .85.28c.31.05.63.09.95.09 1.25-.01 2.45-.5 3.35-1.37.43-.45.77-.98 1-1.56.71-1.76.32-3.78-1-5.15-.45-.43-.98-.76-1.56-.99a4.83 4.83 0 0 0-1.79-.38c-1.92-.01-3.66 1.14-4.4 2.91-.73 1.78-.32 3.82 1.04 5.17l.71.57a3.77 3.77 0 0 0 .85.43z"/><path d="M321.45 255.64c2.61 0 4.73 2.11 4.73 4.73v118.19c0 7.83-6.35 14.18-14.19 14.18H146.52c-7.83 0-14.18-6.35-14.18-14.18v-18.91c0-2.61 2.12-4.73 4.73-4.73s4.72 2.12 4.72 4.73v18.91c0 2.61 2.12 4.73 4.73 4.73h165.47c2.61 0 4.73-2.12 4.73-4.73v-80.37H141.79v23.64c0 2.61-2.11 4.72-4.72 4.72s-4.73-2.11-4.73-4.72v-59.28l-15.6-15.64c-5.52-5.54-5.52-14.5 0-20.03l12.39-12.44a9.13 9.13 0 0 1 .44-.44l96.63-96.93c.56-.54 1.17-1.04 1.82-1.48.61-.8 1.48-1.38 2.45-1.64.29-.04.58-.06.86-.04 5.18-1.87 10.97-.64 14.95 3.16l16.71 16.78a4.72 4.72 0 0 1 0 6.67l-17.65 17.7a4.59 4.59 0 0 1-2.36 2.39l-11.82 11.87a4.6 4.6 0 0 1-2.27 2.27l-11.94 11.98c-.46.95-1.22 1.71-2.16 2.17l-12.05 12.09a4.67 4.67 0 0 1-2.05 2.05l-12.16 12.2c-.44.83-1.11 1.51-1.94 1.94l-12.29 12.29c-.42.78-1.05 1.41-1.82 1.83l-12.39 12.43a4.6 4.6 0 0 1-1.71 1.71l-10.16 10.2h173.23zm-26.76 33.09l10.14-23.64h-8.63l-10.13 23.64h8.62zm-18.91 0l10.14-23.64h-8.63l-10.13 23.64h8.62zm-18.91 0L267 265.09h-8.62l-10.13 23.64h8.62zm-18.9 0l10.13-23.64h-8.63l-10.13 23.64h8.63zm-18.91 0l10.13-23.64h-8.63l-10.13 23.64h8.63zm-37.83 0l10.13-23.64h-8.62l-10.13 23.64h8.62zm-18.91 0l10.13-23.64h-8.62l-10.14 23.64h8.63zm29.2 0h8.62l10.13-23.64h-8.62l-10.13 23.64zm-53.92-69.39l6.7 26.84 6.39-6.41-6.71-26.83-6.38 6.4zm14.17-14.21l6.72 26.82 6.38-6.4-6.71-26.82-6.39 6.4zm14.19-14.22l6.71 26.83 6.38-6.41-6.7-26.82-6.39 6.4zm14.16-14.22l6.73 26.83 6.39-6.41-6.71-26.83-6.41 6.41zm14.21-14.22l6.71 26.82 6.38-6.4-6.71-26.82-6.38 6.4zm14.13-14.22l6.76 26.83 6.38-6.4-6.7-26.83-6.44 6.4zm31.17-24.52a4.63 4.63 0 0 0-2.07-1.13l6 24.02 9.45-9.45-13.38-13.44zm-16.99 10.3l6.71 26.84 6.38-6.41-6.7-26.83-6.39 6.4zm-99.21 106.2l12.87 12.9-6.5-25.97-6.37 6.39c-1.84 1.85-1.84 4.83 0 6.68zm18.36 48.5h1.62l10.13-23.64h-11.75v23.64zm174.93 0v-23.64h-1.61l-10.13 23.64h11.74zM160.7 369.1c-2.61 0-4.72-2.11-4.72-4.72V317.1a4.75 4.75 0 0 1 2.1-3.94 4.74 4.74 0 0 1 4.44-.42l56.74 23.64a4.72 4.72 0 0 1 0 8.72l-56.74 23.64c-.57.24-1.19.37-1.82.36zm4.73-11.81l39.72-16.55-39.72-16.55v33.1z" fill-rule="evenodd"/><use xlink:href="#B"/><use xlink:href="#B" y="18.91"/><path d="M236.35 354.92h66.19c2.61 0 4.73-2.12 4.73-4.73s-2.12-4.73-4.73-4.73h-66.19c-2.61 0-4.73 2.12-4.73 4.73s2.12 4.73 4.73 4.73zm0 18.91h66.19c2.61 0 4.73-2.11 4.73-4.73 0-2.61-2.12-4.72-4.73-4.72h-66.19c-2.61 0-4.73 2.11-4.73 4.72 0 2.62 2.12 4.73 4.73 4.73h0zm-37.82-250.57c-2.61 0-4.73 2.12-4.73 4.73v4.73c0 2.61 2.12 4.72 4.73 4.72s4.72-2.11 4.72-4.72c2.62 0 4.73-2.12 4.73-4.73s-2.11-4.73-4.73-4.73h-4.72zm189.11 0h-118.2c-2.61 0-4.72 2.12-4.72 4.73s2.11 4.73 4.72 4.73h113.47V284h-42.55c-2.61 0-4.73 2.12-4.73 4.73s2.12 4.73 4.73 4.73h47.28c2.61 0 4.73-2.12 4.73-4.73V127.99c0-2.61-2.12-4.73-4.73-4.73h0zM193.8 217.82v23.64c0 2.61 2.12 4.72 4.73 4.72s4.72-2.11 4.72-4.72v-23.64a4.72 4.72 0 0 0-4.72-4.73c-2.61 0-4.73 2.11-4.73 4.73zm94.56-70.92c0-2.61-2.12-4.73-4.73-4.73h-14.19c-2.61 0-4.72 2.12-4.72 4.73s2.11 4.73 4.72 4.73h9.46v42.55h-61.46c-2.61 0-4.73 2.11-4.73 4.73 0 2.61 2.12 4.72 4.73 4.72h66.19c2.61 0 4.73-2.11 4.73-4.72V146.9z"/><path fill-rule="evenodd" d="M297.81 198.91V146.9c0-2.61 2.12-4.73 4.73-4.73h66.19c2.61 0 4.72 2.12 4.72 4.73v52.01c0 2.61-2.11 4.72-4.72 4.72h-66.19c-2.61 0-4.73-2.11-4.73-4.72zm9.46-4.73H364v-42.55h-56.73v42.55z"/><path d="M283.63 246.18c2.61 0 4.73-2.11 4.73-4.72v-23.64c0-2.62-2.12-4.73-4.73-4.73h-66.19c-2.61 0-4.73 2.11-4.73 4.73v23.64c0 2.61 2.12 4.72 4.73 4.72s4.73-2.11 4.73-4.72v-18.92h56.73v18.92c0 2.61 2.12 4.72 4.73 4.72zm14.18-4.72c0 2.61 2.12 4.72 4.73 4.72s4.73-2.11 4.73-4.72v-18.92H364v42.55h-23.64c-2.61 0-4.73 2.12-4.73 4.73s2.12 4.73 4.73 4.73h28.37c2.61 0 4.72-2.12 4.72-4.73v-52a4.72 4.72 0 0 0-4.72-4.73h-66.19c-2.61 0-4.73 2.11-4.73 4.73v23.64z"/></g><defs ><path id="B" d="M236.35 317.1h66.19c2.61 0 4.73-2.12 4.73-4.73s-2.12-4.73-4.73-4.73h-66.19c-2.61 0-4.73 2.12-4.73 4.73s2.12 4.73 4.73 4.73h0z"/></defs></svg>

<svg xmlns="http://www.w3.org/2000/svg" viewBox="0 0 505 504" width="505" height="504">
	<style>
		tspan { white-space:pre }
		.shp0 { fill: #a4c2f7 } 
		.shp1 { fill: #e3e7f2 } 
		.shp2 { fill: #ffffff } 
		.shp3 { fill: #428dff } 
	</style>
	<path id="Layer" class="shp0" d="M197.35 127.99L387.64 127.99L387.64 287.93L197.35 287.93L197.35 127.99Z" />
	<path id="Layer" class="shp1" d="M197.35 127.99L373.45 127.99L373.45 287.93L197.35 287.93L197.35 127.99Z" />
	<path id="Layer" fill-rule="evenodd" class="shp0" d="M321.45 260.37L321.45 378.56C321.43 383.78 317.21 388 311.99 388.01L146.52 388.01C141.31 388 137.08 383.78 137.07 378.56L137.07 260.37L321.45 260.37ZM205.29 288.73L203.25 293.46L222.17 293.46L224.2 288.73L205.29 288.73Z" />
	<path id="Layer" fill-rule="evenodd" class="shp1" d="M307.27 260.37L307.27 378.56C307.25 383.78 303.03 388 297.81 388.01L146.52 388.01C141.31 388 137.08 383.78 137.07 378.56L137.07 260.37L307.27 260.37ZM191.11 288.73L189.07 293.46L207.98 293.46L210.02 288.73L191.11 288.73Z" />
	<path id="Layer" class="shp1" d="M259.66 137.16L244.86 152.01L237.48 159.38L230.68 166.24L216.49 180.42L209.17 187.79L202.36 194.65L194.98 202.03L188.17 208.88L180.85 216.21L173.99 223.11L159.81 237.29L152.53 244.62L152.53 244.67L145.62 251.53L138.34 258.85L136.83 260.37L120.09 243.58C118.32 241.81 117.32 239.4 117.32 236.89C117.32 234.38 118.32 231.98 120.09 230.2L128.46 221.79L142.65 207.6L149.88 200.32L156.83 193.37L164.02 186.14L171.01 179.14L178.2 171.91L185.15 164.91L192.38 157.73L199.33 150.73L206.52 143.5L220.7 129.31L227.7 122.27L229.54 120.43C231.31 118.64 233.72 117.64 236.23 117.64C238.74 117.64 241.15 118.64 242.92 120.43L259.66 137.16Z" />
	<path id="Layer" class="shp1" d="M160.7 317.1L160.7 364.38L217.44 340.74L160.7 317.1Z" />
	<path id="Layer" class="shp2" d="M197.35 152.73L192.38 157.73L185.15 164.91L178.2 171.91L171.01 179.14L164.02 186.14L156.83 193.37L149.88 200.32L142.65 207.6L128.46 221.79L120.09 230.2C118.32 231.98 117.32 234.38 117.32 236.89C117.32 239.4 118.32 241.81 120.09 243.58L136.83 260.37L138.34 258.85L143.91 253.25L134.28 243.58C132.5 241.81 131.5 239.4 131.5 236.89C131.5 234.38 132.5 231.98 134.28 230.2L142.65 221.79L149.88 214.55L156.83 207.6L164.06 200.32L171.01 193.37L178.2 186.14L185.19 179.14L192.38 171.91L199.33 164.91L206.56 157.73" />
	<path id="Layer" class="shp2" d="M151.25 378.56L151.25 260.37L137.07 260.37L137.07 378.56C137.08 383.78 141.31 388 146.52 388.01L160.7 388.01C155.49 388 151.27 383.78 151.25 378.56L151.25 378.56Z" />
	<path id="Layer" class="shp2" d="M132.34 378.56L132.34 260.37L141.79 260.37L141.79 378.56L132.34 378.56Z" />
	<g id="Layer">
		<path id="Layer" class="shp3" d="M135.27 345.09C135.54 345.22 135.83 345.32 136.12 345.37C136.43 345.42 136.75 345.46 137.07 345.46C138.32 345.45 139.52 344.96 140.42 344.09C140.85 343.64 141.19 343.11 141.42 342.53C142.13 340.77 141.74 338.75 140.42 337.38C139.97 336.95 139.44 336.62 138.86 336.39C138.29 336.15 137.68 336.02 137.07 336.01C135.15 336 133.41 337.15 132.67 338.92C131.94 340.7 132.35 342.74 133.71 344.09L134.42 344.66C134.68 344.84 134.97 344.98 135.27 345.09Z" />
		<path id="Layer" fill-rule="evenodd" class="shp3" d="M321.45 255.64C324.06 255.64 326.18 257.75 326.18 260.37L326.18 378.56C326.18 386.39 319.83 392.74 311.99 392.74L146.52 392.74C138.69 392.74 132.34 386.39 132.34 378.56L132.34 359.65C132.34 357.04 134.46 354.92 137.07 354.92C139.68 354.92 141.79 357.04 141.79 359.65L141.79 378.56C141.79 381.17 143.91 383.29 146.52 383.29L311.99 383.29C314.6 383.29 316.72 381.17 316.72 378.56L316.72 298.19L141.79 298.19L141.79 321.83C141.79 324.44 139.68 326.55 137.07 326.55C134.46 326.55 132.34 324.44 132.34 321.83L132.34 262.55L116.74 246.91C111.22 241.37 111.22 232.41 116.74 226.88L129.13 214.44C129.27 214.29 129.42 214.14 129.57 214L226.2 117.07C226.76 116.53 227.37 116.03 228.02 115.59C228.63 114.79 229.5 114.21 230.47 113.95C230.76 113.91 231.05 113.89 231.33 113.91C236.51 112.04 242.3 113.27 246.28 117.07L262.99 133.85C264.83 135.69 264.83 138.68 262.99 140.52L245.34 158.22C244.88 159.29 244.04 160.14 242.98 160.61L231.16 172.48C230.7 173.49 229.89 174.29 228.89 174.75L216.95 186.73C216.49 187.68 215.73 188.44 214.79 188.9L202.74 200.99C202.29 201.87 201.58 202.59 200.69 203.04L188.53 215.24C188.09 216.07 187.42 216.75 186.59 217.18L174.3 229.47C173.88 230.25 173.25 230.88 172.48 231.3L160.09 243.73C159.68 244.44 159.09 245.04 158.38 245.44L148.22 255.64L321.45 255.64ZM294.69 288.73L304.83 265.09L296.2 265.09L286.07 288.73L294.69 288.73ZM275.78 288.73L285.92 265.09L277.29 265.09L267.16 288.73L275.78 288.73ZM256.87 288.73L267 265.09L258.38 265.09L248.25 288.73L256.87 288.73ZM237.97 288.73L248.1 265.09L239.47 265.09L229.34 288.73L237.97 288.73ZM219.06 288.73L229.19 265.09L220.56 265.09L210.43 288.73L219.06 288.73ZM181.23 288.73L191.36 265.09L182.74 265.09L172.61 288.73L181.23 288.73ZM162.32 288.73L172.45 265.09L163.83 265.09L153.69 288.73L162.32 288.73ZM191.52 288.73L200.14 288.73L210.27 265.09L201.65 265.09L191.52 288.73ZM137.6 219.34L144.3 246.18L150.69 239.77L143.98 212.94L137.6 219.34ZM151.77 205.13L158.49 231.95L164.87 225.55L158.16 198.73L151.77 205.13ZM165.96 190.91L172.67 217.74L179.05 211.33L172.35 184.51L165.96 190.91ZM180.12 176.69L186.85 203.52L193.24 197.11L186.53 170.28L180.12 176.69ZM194.33 162.47L201.04 189.29L207.42 182.89L200.71 156.07L194.33 162.47ZM208.46 148.25L215.22 175.08L221.6 168.68L214.9 141.85L208.46 148.25ZM239.63 123.73C239.05 123.18 238.33 122.79 237.56 122.6L243.56 146.62L253.01 137.17L239.63 123.73ZM222.64 134.03L229.35 160.87L235.73 154.46L229.03 127.63L222.64 134.03ZM123.43 240.23L136.3 253.13L129.8 227.16L123.43 233.55C121.59 235.4 121.59 238.38 123.43 240.23ZM141.79 288.73L143.41 288.73L153.54 265.09L141.79 265.09L141.79 288.73ZM316.72 288.73L316.72 265.09L315.11 265.09L304.98 288.73L316.72 288.73Z" />
		<path id="Layer" fill-rule="evenodd" class="shp3" d="M160.7 369.1C158.09 369.1 155.98 366.99 155.98 364.38L155.98 317.1C155.98 315.52 156.77 314.04 158.08 313.16C159.4 312.29 161.07 312.13 162.52 312.74L219.26 336.38C221.02 337.11 222.17 338.83 222.17 340.74C222.17 342.65 221.02 344.37 219.26 345.1L162.52 368.74C161.95 368.98 161.33 369.11 160.7 369.1ZM165.43 357.29L205.15 340.74L165.43 324.19L165.43 357.29Z" />
		<path id="Layer" class="shp3" d="M236.35 317.1L302.54 317.1C305.15 317.1 307.27 314.98 307.27 312.37C307.27 309.76 305.15 307.64 302.54 307.64L236.35 307.64C233.74 307.64 231.62 309.76 231.62 312.37C231.62 314.98 233.74 317.1 236.35 317.1L236.35 317.1Z" />
		<path id="Layer" class="shp3" d="M236.35 336.01L302.54 336.01C305.15 336.01 307.27 333.89 307.27 331.28C307.27 328.67 305.15 326.55 302.54 326.55L236.35 326.55C233.74 326.55 231.62 328.67 231.62 331.28C231.62 333.89 233.74 336.01 236.35 336.01L236.35 336.01Z" />
		<path id="Layer" class="shp3" d="M236.35 354.92L302.54 354.92C305.15 354.92 307.27 352.8 307.27 350.19C307.27 347.58 305.15 345.46 302.54 345.46L236.35 345.46C233.74 345.46 231.62 347.58 231.62 350.19C231.62 352.8 233.74 354.92 236.35 354.92Z" />
		<path id="Layer" class="shp3" d="M236.35 373.83L302.54 373.83C305.15 373.83 307.27 371.72 307.27 369.1C307.27 366.49 305.15 364.38 302.54 364.38L236.35 364.38C233.74 364.38 231.62 366.49 231.62 369.1C231.62 371.72 233.74 373.83 236.35 373.83L236.35 373.83Z" />
		<path id="Layer" class="shp3" d="M198.53 123.26C195.92 123.26 193.8 125.38 193.8 127.99L193.8 132.72C193.8 135.33 195.92 137.44 198.53 137.44C201.14 137.44 203.25 135.33 203.25 132.72C205.87 132.72 207.98 130.6 207.98 127.99C207.98 125.38 205.87 123.26 203.25 123.26L198.53 123.26Z" />
		<path id="Layer" class="shp3" d="M387.64 123.26L269.44 123.26C266.83 123.26 264.72 125.38 264.72 127.99C264.72 130.6 266.83 132.72 269.44 132.72L382.91 132.72L382.91 284L340.36 284C337.75 284 335.63 286.12 335.63 288.73C335.63 291.34 337.75 293.46 340.36 293.46L387.64 293.46C390.25 293.46 392.37 291.34 392.37 288.73L392.37 127.99C392.37 125.38 390.25 123.26 387.64 123.26L387.64 123.26Z" />
		<path id="Layer" class="shp3" d="M193.8 217.82L193.8 241.46C193.8 244.07 195.92 246.18 198.53 246.18C201.14 246.18 203.25 244.07 203.25 241.46L203.25 217.82C203.25 215.2 201.14 213.09 198.53 213.09C195.92 213.09 193.8 215.2 193.8 217.82Z" />
		<path id="Layer" class="shp3" d="M288.36 146.9C288.36 144.29 286.24 142.17 283.63 142.17L269.44 142.17C266.83 142.17 264.72 144.29 264.72 146.9C264.72 149.51 266.83 151.63 269.44 151.63L278.9 151.63L278.9 194.18L217.44 194.18C214.83 194.18 212.71 196.29 212.71 198.91C212.71 201.52 214.83 203.63 217.44 203.63L283.63 203.63C286.24 203.63 288.36 201.52 288.36 198.91L288.36 146.9Z" />
		<path id="Layer" fill-rule="evenodd" class="shp3" d="M297.81 198.91L297.81 146.9C297.81 144.29 299.93 142.17 302.54 142.17L368.73 142.17C371.34 142.17 373.45 144.29 373.45 146.9L373.45 198.91C373.45 201.52 371.34 203.63 368.73 203.63L302.54 203.63C299.93 203.63 297.81 201.52 297.81 198.91ZM307.27 194.18L364 194.18L364 151.63L307.27 151.63L307.27 194.18Z" />
		<path id="Layer" class="shp3" d="M283.63 246.18C286.24 246.18 288.36 244.07 288.36 241.46L288.36 217.82C288.36 215.2 286.24 213.09 283.63 213.09L217.44 213.09C214.83 213.09 212.71 215.2 212.71 217.82L212.71 241.46C212.71 244.07 214.83 246.18 217.44 246.18C220.05 246.18 222.17 244.07 222.17 241.46L222.17 222.54L278.9 222.54L278.9 241.46C278.9 244.07 281.02 246.18 283.63 246.18Z" />
		<path id="Layer" class="shp3" d="M297.81 241.46C297.81 244.07 299.93 246.18 302.54 246.18C305.15 246.18 307.27 244.07 307.27 241.46L307.27 222.54L364 222.54L364 265.09L340.36 265.09C337.75 265.09 335.63 267.21 335.63 269.82C335.63 272.43 337.75 274.55 340.36 274.55L368.73 274.55C371.34 274.55 373.45 272.43 373.45 269.82L373.45 217.82C373.45 215.2 371.34 213.09 368.73 213.09L302.54 213.09C299.93 213.09 297.81 215.2 297.81 217.82L297.81 241.46Z" />
	</g>
</svg>
